X:1
T:title
M:4/4
Q:120
L:1/8
R:Reel
K:C
 ^f2 ^b'3 ^g' ^Ba' | G _A2g4 ^d |  _e'2 ^b' _A2e ^c _d |  _c4g'3b | f4 _D3f |  _c4f' ^a'3 |  ^d _c3g'4 |  ^c' ^D3 _B2 ^G _E | 